X: 12
T: Concertina, The
Z: lusoceltibero
S: https://thesession.org/tunes/18#setting50302
R: reel
M: 4/4
L: 1/8
K: Dmaj
|:A2FA BAFG|A2 FA BAFA|B2 cA B2 cA|B2 cA BAFG|
A2FA BAFG|A2 FA BAFE|FABc dcdB|AFEF D4:|
|:Add2 Add2|AddA BAFA|B2 cA B2 cA|B2 cA BAFG|
Add2 Add2|AddA BAFE|FABc (d2d) B|AFEF D4:|

%-------------------- TUNE SEPARATOR --------------------%

